build/documents/FileXMLSolid.svg

<svg xmlns="http://www.w3.org/2000/svg" fill="none" viewBox="0 0 24 24" focusable="false"><path d="M0 0H24V24H0z"/><path fill="#74767B" fill-rule="evenodd" d="M5 11L5 6C5 4.34315 6.34315 3 8 3L13.042 3C13.8752 3 14.671 3.34655 15.2385 3.95662L18.1965 7.13629C18.7129 7.69141 19 8.42148 19 9.17966L19 11C20.6569 11 22 12.3431 22 14L22 18C22 19.6569 20.6569 21 19 21L5 21C3.34315 21 2 19.6569 2 18L2 14C2 12.3431 3.34315 11 5 11ZM13.042 4.3L8 4.3C7.06112 4.3 6.3 5.06112 6.3 6L6.3 11L17.7 11L17.7 9.17966C17.7 8.75003 17.5373 8.33632 17.2447 8.02175L14.2867 4.84209C13.9651 4.49638 13.5142 4.3 13.042 4.3ZM8.49664 13.6985C8.2044 13.49 7.79848 13.5579 7.58999 13.8501L6.85474 14.8807L6.11948 13.8501C5.91099 13.5579 5.50508 13.49 5.21284 13.6985C4.9206 13.9069 4.8527 14.3129 5.06118 14.6051L6.05628 16L5.06116 17.3948C4.85268 17.6871 4.92057 18.093 5.21281 18.3015C5.50505 18.51 5.91097 18.4421 6.11946 18.1498L6.85474 17.1192L7.59001 18.1498C7.7985 18.4421 8.20442 18.51 8.49666 18.3015C8.7889 18.093 8.8568 17.6871 8.64831 17.3948L7.65319 16L8.64829 14.6051C8.85677 14.3129 8.78888 13.9069 8.49664 13.6985ZM17.495 14.2328C17.495 13.8739 17.204 13.5828 16.845 13.5828C16.486 13.5828 16.195 13.8739 16.195 14.2328L16.195 17.7724C16.195 18.1313 16.486 18.4224 16.845 18.4224L18.5638 18.4224C18.9228 18.4224 19.2138 18.1313 19.2138 17.7724C19.2138 17.4134 18.9228 17.1224 18.5638 17.1224L17.495 17.1224L17.495 14.2328ZM10.1722 13.6985C10.4645 13.49 10.8704 13.5579 11.0789 13.8501L12.3982 15.6995L13.6883 13.891C13.7154 13.8473 13.7475 13.8071 13.7838 13.7711C14.0041 13.5473 14.3604 13.5103 14.6242 13.6985C14.8264 13.8428 14.9212 14.0817 14.8913 14.312L14.8913 17.7724C14.8913 18.1313 14.6003 18.4224 14.2413 18.4224C13.8823 18.4224 13.5913 18.1313 13.5913 17.7724L13.5913 16.2655L12.9379 17.1814C12.9097 17.2234 12.8762 17.2626 12.8375 17.2979C12.7935 17.3384 12.7446 17.372 12.6927 17.3983C12.5994 17.4459 12.4984 17.4689 12.3982 17.4688C12.2384 17.4687 12.0806 17.4098 11.9588 17.2979C11.9202 17.2626 11.8867 17.2234 11.8585 17.1814L11.1994 16.2576L11.1994 17.7724C11.1994 18.1313 10.9084 18.4224 10.5494 18.4224C10.1904 18.4224 9.89941 18.1313 9.89941 17.7724L9.89941 14.2329C9.89941 14.22 9.89979 14.2071 9.90053 14.1944C9.91044 14.0033 10.0043 13.8183 10.1722 13.6985Z"/><path fill="#74767B" fill-rule="evenodd" d="M5 11C3.34315 11 2 12.3431 2 14L2 18C2 19.6569 3.34315 21 5 21L19 21C20.6569 21 22 19.6569 22 18L22 14C22 12.3431 20.6569 11 19 11L19 9.17966C19 9.16785 18.9999 9.15601 18.9998 9.14415C18.9955 8.77734 18.924 8.41767 18.7919 8.08183C18.6556 7.73515 18.4547 7.41385 18.1965 7.13629L15.2385 3.95662C15.2374 3.95543 15.2363 3.95424 15.2352 3.95305C14.9521 3.64972 14.6125 3.41179 14.2399 3.24953C14.2383 3.24884 14.2367 3.24814 14.2351 3.24744C13.8624 3.0859 13.4568 3 13.042 3L8 3C7.70148 3 7.41313 3.0436 7.141 3.12479C6.95049 3.18162 6.76793 3.25687 6.59537 3.34847C6.33172 3.48843 6.09142 3.66656 5.88186 3.8755C5.8808 3.87656 5.87974 3.87762 5.87868 3.87868C5.87762 3.87974 5.87656 3.8808 5.8755 3.88186C5.66658 4.0914 5.48847 4.33167 5.34851 4.59529C5.25689 4.76787 5.18163 4.95046 5.12479 5.141C5.04404 5.41166 5.00047 5.69835 5 5.99515L5 6L5 9.7L5 11ZM19 12.3L17.1058 12.3C17.153 12.3063 17.1998 12.3143 17.2463 12.3241C17.3682 12.3497 17.4875 12.3872 17.6044 12.4366C17.7187 12.485 17.8266 12.543 17.928 12.6108C18.0336 12.6813 18.1322 12.7624 18.2238 12.854C18.3154 12.9456 18.3965 13.0442 18.4671 13.1498C18.5348 13.2512 18.5928 13.3591 18.6412 13.4734C18.6906 13.5902 18.7281 13.7096 18.7537 13.8314C18.7812 13.9623 18.795 14.0961 18.795 14.2328L18.795 15.8358C18.8522 15.8425 18.909 15.8518 18.9652 15.8636C19.087 15.8892 19.2064 15.9267 19.3232 15.9761C19.4376 16.0245 19.5454 16.0825 19.6468 16.1502C19.7524 16.2208 19.8511 16.3019 19.9427 16.3935C20.0343 16.4851 20.1153 16.5837 20.1859 16.6893C20.2536 16.7907 20.3117 16.8986 20.36 17.0129C20.4095 17.1298 20.447 17.2492 20.4726 17.3711C20.5001 17.5019 20.5138 17.6357 20.5138 17.7724C20.5138 17.909 20.5001 18.0428 20.4726 18.1737C20.447 18.2956 20.4095 18.4149 20.36 18.5318C20.3117 18.6461 20.2536 18.754 20.1859 18.8554C20.1154 18.961 20.0343 19.0596 19.9427 19.1512C19.851 19.2429 19.7524 19.324 19.6467 19.3945C19.5453 19.4622 19.4375 19.5203 19.3232 19.5686C19.2064 19.618 19.087 19.6555 18.9652 19.6811C18.9307 19.6884 18.896 19.6947 18.861 19.7L19 19.7C19.1374 19.7 19.2711 19.6843 19.4009 19.653C19.4895 19.6316 19.5763 19.6029 19.6613 19.5669C19.7519 19.5286 19.8379 19.4832 19.9193 19.4308C20.0206 19.3655 20.1149 19.2893 20.2021 19.2021C20.2893 19.1149 20.3655 19.0206 20.4308 18.9192C20.4833 18.8378 20.5286 18.7519 20.5669 18.6613C20.6029 18.5763 20.6316 18.4895 20.6529 18.401C20.6843 18.2711 20.7 18.1375 20.7 18L20.7 14C20.7 13.8625 20.6843 13.7289 20.6529 13.599C20.6316 13.5105 20.6029 13.4237 20.5669 13.3387C20.5286 13.2481 20.4833 13.1621 20.4308 13.0807C20.3655 12.9794 20.2893 12.8851 20.2021 12.7979C20.1149 12.7107 20.0207 12.6345 19.9194 12.5692C19.8379 12.5168 19.7519 12.4714 19.6613 12.4331C19.5763 12.3971 19.4895 12.3684 19.401 12.3471C19.2711 12.3157 19.1375 12.3 19 12.3ZM16.5478 19.7C16.5128 19.6947 16.4781 19.6884 16.4436 19.6811C16.3217 19.6555 16.2024 19.618 16.0855 19.5686C15.9712 19.5202 15.8633 19.4622 15.7619 19.3944C15.6853 19.3433 15.6124 19.2865 15.5431 19.2243C15.4739 19.2866 15.4009 19.3433 15.3243 19.3945C15.2229 19.4622 15.115 19.5202 15.0007 19.5686C14.8839 19.618 14.7646 19.6555 14.6427 19.6811C14.6082 19.6884 14.5735 19.6947 14.5385 19.7L16.5478 19.7ZM13.9441 19.7C13.9092 19.6947 13.8744 19.6884 13.8399 19.6811C13.7181 19.6555 13.5987 19.618 13.4819 19.5686C13.3676 19.5202 13.2597 19.4622 13.1583 19.3945C13.0527 19.3239 12.9541 19.2428 12.8624 19.1512C12.7709 19.0596 12.6898 18.961 12.6192 18.8554C12.5989 18.825 12.5794 18.7939 12.5609 18.7623C12.5068 18.7667 12.4521 18.7689 12.397 18.7688C12.341 18.7688 12.2854 18.7664 12.2303 18.7617C12.2116 18.7935 12.192 18.8247 12.1715 18.8553C12.101 18.961 12.0199 19.0596 11.9283 19.1512C11.8367 19.2428 11.738 19.3239 11.6324 19.3945C11.531 19.4622 11.4232 19.5202 11.3088 19.5686C11.192 19.618 11.0726 19.6555 10.9508 19.6811C10.9163 19.6884 10.8816 19.6947 10.8466 19.7L13.9441 19.7ZM10.2522 19.7C10.2173 19.6947 10.1826 19.6884 10.148 19.6811C10.0262 19.6555 9.90683 19.618 9.78999 19.5686C9.67566 19.5202 9.56781 19.4622 9.46643 19.3945C9.42104 19.3642 9.37694 19.3319 9.33414 19.2977C9.30731 19.319 9.27981 19.3397 9.25165 19.3598C9.14038 19.4392 9.02349 19.5057 8.90096 19.5593C8.78689 19.6092 8.66794 19.648 8.54411 19.6757C8.50118 19.6852 8.45821 19.6933 8.41519 19.7L10.2522 19.7ZM7.82476 19.7C7.81566 19.6986 7.80656 19.6971 7.79746 19.6956C7.6697 19.6743 7.54643 19.6411 7.42763 19.596C7.31361 19.5528 7.20372 19.4987 7.09795 19.4338C7.01162 19.3807 6.93055 19.3219 6.85474 19.2575C6.77892 19.3219 6.69785 19.3807 6.61152 19.4338C6.50576 19.4987 6.39587 19.5528 6.28185 19.596C6.16305 19.6411 6.03977 19.6743 5.91201 19.6956C5.90291 19.6971 5.89381 19.6986 5.88471 19.7L7.82476 19.7ZM5.29428 19.7C5.25126 19.6933 5.20829 19.6852 5.16536 19.6757C5.04153 19.648 4.92258 19.6092 4.80851 19.5593C4.68598 19.5057 4.56909 19.4392 4.45782 19.3598C4.34657 19.2804 4.24564 19.1915 4.15505 19.0931C4.07071 19.0015 3.99533 18.9017 3.9289 18.7936C3.86392 18.6878 3.80983 18.5779 3.76663 18.4639C3.7216 18.3451 3.6884 18.2218 3.66703 18.094C3.64566 17.9663 3.63693 17.8389 3.64083 17.7119C3.64458 17.5901 3.65997 17.4686 3.687 17.3474C3.71464 17.2236 3.75342 17.1046 3.80336 16.9905C3.857 16.868 3.9235 16.7511 4.00287 16.6399L4.45937 16L4.00289 15.3601C3.92351 15.2488 3.857 15.1319 3.80336 15.0094C3.75343 14.8953 3.71465 14.7764 3.68703 14.6525C3.66 14.5314 3.64461 14.4099 3.64086 14.288C3.63695 14.161 3.64568 14.0337 3.66705 13.9059C3.68842 13.7781 3.72162 13.6548 3.76664 13.536C3.80984 13.422 3.86394 13.3121 3.92892 13.2064C3.99535 13.0983 4.07073 12.9984 4.15508 12.9068C4.24567 12.8084 4.34659 12.7195 4.45784 12.6402C4.56912 12.5608 4.68604 12.4943 4.80859 12.4406C4.92264 12.3907 5.04157 12.3519 5.16538 12.3243C5.20819 12.3147 5.25104 12.3066 5.29394 12.3L5 12.3C4.86254 12.3 4.72888 12.3157 4.599 12.3471C4.51047 12.3684 4.42369 12.3971 4.33868 12.4331C4.24813 12.4714 4.16214 12.5167 4.0807 12.5692C3.97938 12.6345 3.88512 12.7107 3.79792 12.7979C3.71072 12.8851 3.63448 12.9794 3.56921 13.0807C3.51675 13.1621 3.47136 13.2481 3.43306 13.3387C3.3971 13.4237 3.36844 13.5105 3.34705 13.599C3.31568 13.7289 3.3 13.8625 3.3 14L3.3 18C3.3 18.1374 3.31568 18.2711 3.34705 18.401C3.36843 18.4895 3.3971 18.5763 3.43306 18.6613C3.47136 18.7519 3.51675 18.8379 3.56921 18.9193C3.63449 19.0206 3.71072 19.1149 3.79792 19.2021C3.88512 19.2893 3.97938 19.3655 4.0807 19.4308C4.16213 19.4833 4.24813 19.5286 4.33868 19.5669C4.42373 19.6029 4.51053 19.6316 4.5991 19.653C4.72895 19.6843 4.86258 19.7 5 19.7L5.29428 19.7ZM5.88509 12.3C5.89407 12.3014 5.90306 12.3028 5.91204 12.3043C6.03981 12.3257 6.16311 12.3589 6.28192 12.4039C6.39592 12.4471 6.5058 12.5012 6.61155 12.5662C6.69787 12.6192 6.77893 12.678 6.85474 12.7425C6.93054 12.678 7.0116 12.6192 7.09793 12.5662C7.20368 12.5012 7.31356 12.4471 7.42756 12.4039C7.54637 12.3589 7.66966 12.3257 7.79744 12.3043C7.80642 12.3028 7.8154 12.3014 7.82438 12.3L5.88509 12.3ZM8.41553 12.3C8.45843 12.3066 8.50128 12.3147 8.54409 12.3243C8.6679 12.3519 8.78684 12.3907 8.90089 12.4406C9.02344 12.4943 9.14035 12.5608 9.25163 12.6402C9.27989 12.6603 9.30749 12.6811 9.33442 12.7025C9.36134 12.6811 9.38894 12.6604 9.41722 12.6402C9.52848 12.5608 9.64536 12.4943 9.76788 12.4407C9.81103 12.4218 9.85487 12.4045 9.89941 12.3888L9.89941 12.3L8.41553 12.3ZM9.97299 12.3L10.011 12.3532C10.0484 12.3425 10.0864 12.3329 10.1248 12.3243C10.1676 12.3148 10.2105 12.3067 10.2535 12.3L9.97299 12.3ZM10.8443 12.3C10.8533 12.3014 10.8624 12.3028 10.8714 12.3043C10.9992 12.3257 11.1225 12.3589 11.2413 12.4039C11.3553 12.4471 11.4652 12.5012 11.5709 12.5662C11.679 12.6326 11.7789 12.708 11.8705 12.7924C11.9689 12.883 12.0578 12.9839 12.1372 13.0951L12.3982 13.4611L12.6113 13.1623C12.6852 13.0495 12.7671 12.9485 12.8572 12.8594C12.9388 12.7764 13.0263 12.7019 13.1198 12.6357C13.2141 12.569 13.3144 12.5108 13.4207 12.4611C13.5221 12.4137 13.6261 12.3754 13.7325 12.3464C13.8044 12.3267 13.8775 12.3113 13.9516 12.3L10.8443 12.3ZM14.5432 12.3C14.6105 12.3104 14.6774 12.3244 14.744 12.3419C14.7579 12.3456 14.7716 12.3494 14.7854 12.3533L14.8234 12.3L14.5432 12.3ZM14.8913 12.3L14.8913 12.387C14.9488 12.407 15.0051 12.4297 15.0603 12.4551C15.1714 12.5061 15.2777 12.5678 15.3792 12.6402C15.4389 12.6828 15.4956 12.728 15.5491 12.7756C15.6166 12.7154 15.6875 12.6605 15.7619 12.6108C15.8633 12.543 15.9712 12.485 16.0855 12.4366C16.2024 12.3872 16.3217 12.3497 16.4436 12.3241C16.4901 12.3143 16.5369 12.3063 16.5842 12.3L14.8913 12.3ZM16.197 14.181C16.1957 14.1981 16.195 14.2154 16.195 14.2328L16.195 17.7724C16.195 18.1313 16.486 18.4224 16.845 18.4224L18.5638 18.4224C18.9228 18.4224 19.2138 18.1313 19.2138 17.7724C19.2138 17.4134 18.9228 17.1224 18.5638 17.1224L17.495 17.1224L17.495 15.8224L17.495 14.2341L17.495 14.2328C17.495 13.8739 17.204 13.5828 16.845 13.5828C16.5034 13.5828 16.2234 13.8463 16.197 14.181ZM14.895 14.276C14.8971 14.2466 14.8973 14.2171 14.8955 14.1877C14.8946 14.1732 14.8932 14.1587 14.8913 14.1442C14.8689 13.9713 14.7774 13.8078 14.6242 13.6985C14.3604 13.5103 14.0041 13.5473 13.7838 13.7711C13.7675 13.7873 13.7521 13.8043 13.7375 13.8221C13.7197 13.8439 13.7033 13.867 13.6883 13.891L13.1966 14.5803L12.3982 15.6995L11.5997 14.5803L11.0789 13.8501C10.8704 13.5579 10.4645 13.49 10.1722 13.6985C10.1164 13.7383 10.0688 13.7853 10.0297 13.8373C9.95119 13.9419 9.90715 14.0668 9.90053 14.1944C9.89979 14.2071 9.89941 14.22 9.89941 14.2329L9.89941 17.7724C9.89941 17.9189 9.9479 18.0541 10.0297 18.1628C10.1483 18.3204 10.337 18.4224 10.5494 18.4224C10.7402 18.4224 10.9119 18.3401 11.0308 18.2092C11.1356 18.0938 11.1994 17.9405 11.1994 17.7724L11.1994 16.2576L11.8585 17.1814C11.8652 17.1914 11.8723 17.2013 11.8796 17.211C11.903 17.2419 11.9295 17.2711 11.9588 17.2979C12.0533 17.3847 12.1694 17.4396 12.2913 17.4599C12.3266 17.4658 12.3623 17.4688 12.3982 17.4688C12.432 17.4689 12.4658 17.4663 12.4994 17.461C12.5656 17.4506 12.6309 17.4299 12.6927 17.3983C12.7446 17.372 12.7935 17.3384 12.8375 17.2979C12.8669 17.2711 12.8934 17.2419 12.9168 17.211C12.9241 17.2013 12.9312 17.1914 12.9379 17.1814L13.5913 16.2655L13.5913 17.7724C13.5913 17.942 13.6563 18.0964 13.7627 18.2122C13.8815 18.3414 14.0519 18.4224 14.2413 18.4224C14.6003 18.4224 14.8913 18.1313 14.8913 17.7724L14.8913 14.312C14.8929 14.3 14.8941 14.288 14.895 14.276ZM8.59941 14.6736L8.64776 14.6058L8.64829 14.6051C8.81709 14.3685 8.80471 14.0574 8.63878 13.8368C8.59977 13.785 8.55227 13.7381 8.49664 13.6985C8.23374 13.5109 7.87886 13.547 7.65846 13.7689C7.63386 13.7937 7.61093 13.8208 7.58999 13.8501L7.58939 13.851L6.85474 14.8807L6.12017 13.8511L6.11948 13.8501C6.09854 13.8208 6.07562 13.7937 6.05101 13.7689C5.83062 13.547 5.47573 13.5109 5.21284 13.6985C4.9206 13.9069 4.8527 14.3129 5.06118 14.6051L5.06172 14.6058L6.05628 16L5.06116 17.3948C4.85268 17.6871 4.92057 18.093 5.21281 18.3015C5.47572 18.489 5.83062 18.4529 6.05102 18.231C6.07561 18.2063 6.09853 18.1792 6.11946 18.1498L6.85474 17.1192L7.59001 18.1498C7.61094 18.1792 7.63386 18.2063 7.65845 18.231C7.87885 18.4529 8.23376 18.489 8.49666 18.3015C8.55216 18.2619 8.59957 18.2152 8.63854 18.1635C8.80472 17.9429 8.8172 17.6316 8.64831 17.3948L8.59941 17.3263L7.65319 16L8.59941 14.6736ZM17.7 11L17.7 9.17966C17.7 9.17041 17.6999 9.16119 17.6998 9.15201C17.6964 8.94676 17.656 8.74557 17.5821 8.55756C17.5054 8.36264 17.3928 8.18188 17.2481 8.02544C17.247 8.02421 17.2458 8.02298 17.2447 8.02175L14.2867 4.84209C14.1259 4.66923 13.9327 4.53371 13.7208 4.4414C13.5155 4.35198 13.2925 4.30311 13.0641 4.30014C13.0568 4.30005 13.0494 4.3 13.042 4.3L8 4.3C7.53239 4.3 7.10888 4.4888 6.80153 4.79432C6.80032 4.79552 6.79912 4.79672 6.79792 4.79792C6.79672 4.79912 6.79552 4.80032 6.79432 4.80153C6.4888 5.10888 6.3 5.53239 6.3 6L6.3 11L17.7 11Z"/><path fill="#74767B" d="M18.5576 8.99931L15.2999 8.99932C15.0357 8.99932 14.7826 8.94815 14.5407 8.84581C14.3073 8.7471 14.1008 8.60789 13.9211 8.42818C13.7413 8.24846 13.6021 8.04192 13.5034 7.80855C13.4011 7.56659 13.3499 7.31352 13.3499 7.04932L13.3499 3.93018L14.6499 3.93018L14.6499 7.04932C14.6499 7.22881 14.7134 7.38202 14.8403 7.50894C14.9672 7.63586 15.1204 7.69932 15.2999 7.69932L18.5576 7.69931L18.5576 8.99931Z"/></svg>

<svg xmlns="http://www.w3.org/2000/svg" fill="none" viewBox="0 0 24 24" focusable="false"><g fill="#74767B" fill-rule="evenodd"><path d="M5 11V6c0-1.66 1.34-3 3-3h5.04c.83 0 1.63.34 2.19.95l2.96 3.18c.52.56.81 1.29.81 2.04V11c1.65 0 3 1.34 3 3v4c0 1.65-1.35 3-3 3H5c-1.66 0-3-1.35-3-3v-4c0-1.66 1.34-3 3-3m8.04-6.71H8c-.94 0-1.7.77-1.7 1.71v5h11.4V9.17c0-.42-.17-.84-.46-1.15l-2.96-3.18c-.32-.35-.77-.55-1.24-.55m-4.55 9.4c-.29-.2-.7-.14-.9.16l-.74 1.03-.74-1.03c-.2-.3-.61-.36-.9-.16-.29.21-.36.62-.15.91l.99 1.4-.99 1.39c-.21.29-.14.7.15.91s.7.14.9-.16l.74-1.03.74 1.03c.2.3.61.37.9.16s.36-.62.15-.91L7.65 16l.99-1.4c.21-.29.14-.7-.15-.91m9 .54c0-.36-.29-.65-.65-.65s-.65.29-.65.65v3.54c0 .36.29.65.65.65h1.72c.36 0 .65-.29.65-.65s-.29-.65-.65-.65h-1.07zm-7.32-.54c.29-.2.7-.14.9.16l1.32 1.84 1.29-1.8a.4.4 0 0 1 .1-.12c.22-.23.58-.26.84-.08.2.15.3.39.27.62v3.46c0 .36-.29.65-.65.65s-.65-.29-.65-.65v-1.51l-.66.92c-.03.04-.06.08-.1.11a.5.5 0 0 1-.14.1.66.66 0 0 1-.74-.1c-.03-.03-.07-.07-.1-.11l-.66-.93v1.52c0 .36-.29.65-.65.65-.35 0-.65-.29-.65-.65v-3.54c0-.02 0-.03.01-.04.01-.19.1-.38.27-.5"/><path d="M5 11c-1.66 0-3 1.34-3 3v4c0 1.65 1.34 3 3 3h14c1.65 0 3-1.35 3-3v-4c0-1.66-1.35-3-3-3V9.17c0-.01 0-.02-.01-.03 0-.37-.07-.73-.2-1.06-.14-.35-.34-.67-.6-.95l-2.96-3.18c-.28-.31-.62-.54-.99-.71h-.01c-.37-.16-.78-.24-1.19-.24H8a3 3 0 0 0-1.41.34c-.26.14-.5.32-.71.53h-.01v.01c-.21.21-.39.45-.53.71-.09.17-.16.36-.22.55-.08.27-.12.55-.12.85V11m14 1.3h-1.9c.05 0 .1.01.14.02.12.02.24.06.36.11.11.05.22.11.32.18q.165.105.3.24c.09.09.17.19.24.29.07.11.13.21.18.33s.08.23.11.36.04.26.04.4v1.6l.17.03c.12.02.24.06.36.11.11.05.22.11.32.18q.165.105.3.24c.09.09.17.19.24.29.07.11.13.21.18.33.04.11.08.23.11.36s.04.26.04.4c0 .13-.01.27-.04.4-.03.12-.07.24-.11.36a2.254 2.254 0 0 1-.42.62q-.135.135-.3.24c-.1.07-.21.13-.32.17q-.18.075-.36.12c-.03 0-.07.01-.1.02H19a1.614 1.614 0 0 0 .66-.14c.09-.04.17-.08.25-.13.11-.07.2-.15.29-.23.08-.09.16-.18.23-.29a2 2 0 0 0 .22-.51c.03-.13.05-.27.05-.4v-4a1.614 1.614 0 0 0-.14-.67c-.04-.09-.08-.17-.13-.25-.07-.11-.15-.2-.23-.29-.09-.08-.18-.16-.29-.23a2 2 0 0 0-.51-.22 1.8 1.8 0 0 0-.4-.04m-2.46 7.4a.4.4 0 0 0-.1-.02q-.18-.045-.36-.12c-.11-.04-.22-.1-.32-.17a2 2 0 0 1-.22-.17c-.07.06-.14.12-.22.17-.1.07-.21.13-.32.17q-.18.075-.36.12c-.04 0-.07.01-.11.02zm-2.6 0c-.04-.01-.07-.02-.11-.02-.12-.03-.24-.07-.35-.12-.12-.04-.23-.1-.33-.17s-.2-.15-.29-.24c-.09-.1-.18-.19-.25-.3-.02-.03-.04-.06-.05-.09h-.33l-.06.09c-.07.11-.16.2-.25.3-.09.09-.19.17-.29.24s-.21.13-.33.17c-.11.05-.23.09-.35.12-.04 0-.07.01-.11.02zm-3.69 0c-.04-.01-.07-.02-.11-.02-.12-.03-.24-.07-.35-.12-.12-.04-.23-.1-.33-.17-.04-.03-.09-.06-.13-.1a1.752 1.752 0 0 1-.43.26q-.18.075-.36.12l-.13.03zm-2.43 0c-.01-.01-.02-.01-.03-.01-.13-.02-.25-.05-.37-.1-.11-.04-.22-.1-.33-.16q-.12-.075-.24-.18-.12.105-.24.18c-.11.06-.22.12-.33.16-.12.05-.25.08-.37.1-.01 0-.02 0-.03.01zm-2.53 0-.13-.03q-.18-.045-.36-.12c-.12-.05-.24-.12-.35-.2-.11-.07-.21-.16-.3-.26-.08-.09-.16-.19-.23-.3-.06-.11-.12-.22-.16-.33-.04-.12-.08-.24-.1-.37s-.03-.26-.02-.38c0-.12.01-.25.04-.37s.07-.24.12-.35c.05-.13.12-.24.2-.36l.45-.63-.45-.64c-.08-.12-.15-.23-.2-.36-.05-.11-.09-.23-.12-.35s-.04-.25-.04-.37c-.01-.12 0-.25.02-.38s.06-.25.1-.37c.04-.11.1-.22.16-.33.07-.11.15-.21.23-.3.09-.1.19-.19.3-.26.11-.08.23-.15.35-.2q.18-.075.36-.12c.04-.01.09-.02.13-.02H5c-.14 0-.28.01-.41.04a1.965 1.965 0 0 0-.51.22c-.11.07-.2.15-.29.23-.08.09-.16.18-.23.29a2 2 0 0 0-.22.51c-.03.13-.04.27-.04.41v4c0 .13.01.27.04.4a1.965 1.965 0 0 0 .22.51c.07.11.15.2.23.29.09.08.18.16.29.23a2 2 0 0 0 .51.22c.13.03.27.05.41.05zm.59-7.4h.03c.12.02.25.05.37.1.11.04.22.1.33.16q.12.075.24.18.12-.105.24-.18c.11-.06.22-.12.33-.16.12-.05.24-.08.37-.1h.03zm2.53 0c.04 0 .09.01.13.02q.18.045.36.12c.12.05.24.12.35.2.02.02.05.04.08.06.03-.02.05-.04.08-.06.11-.08.23-.15.35-.2.05-.02.09-.04.13-.06v-.08zm1.56 0 .04.05c.03-.01.07-.02.11-.03s.09-.02.13-.02zm.87 0h.03c.12.02.25.05.37.1.11.04.22.1.33.16.1.07.2.14.3.23.09.09.18.19.26.3l.26.37.22-.3c.07-.12.15-.22.24-.31.08-.08.17-.15.26-.22.1-.07.2-.12.31-.17a1.435 1.435 0 0 1 .53-.16zm3.7 0c.07.01.13.02.2.04.01 0 .03 0 .04.01l.04-.05zm.35 0v.08c.05.02.11.04.17.07.11.05.21.11.31.19.06.04.12.08.17.13.07-.06.14-.11.22-.16.1-.07.21-.13.32-.18.12-.05.24-.09.36-.11.05-.01.09-.02.14-.02zm1.3 1.88v3.59c0 .36.29.65.65.65h1.72c.36 0 .65-.29.65-.65s-.29-.65-.65-.65h-1.07v-2.89c0-.36-.29-.65-.65-.65-.34 0-.62.26-.65.6m-1.3.09v-.13a.7.7 0 0 0-.27-.45.65.65 0 0 0-.84.08c-.02.01-.03.03-.05.05s-.03.04-.05.07l-.49.69-.8 1.11-.8-1.11-.52-.73c-.2-.3-.61-.36-.9-.16-.06.04-.11.09-.15.14-.07.11-.12.23-.12.36-.01.01-.01.02-.01.04v3.54a.649.649 0 0 0 .65.65c.2 0 .37-.08.49-.22.1-.11.16-.26.16-.43v-1.52l.66.93c.01.01.02.02.02.03.03.03.05.06.08.08.1.09.21.14.34.16.03.01.07.01.1.01h.1c.07-.01.14-.04.2-.07.05-.02.1-.06.14-.1.03-.02.06-.05.08-.08.01-.01.02-.02.02-.03l.66-.92v1.51a.65.65 0 0 0 .65.65c.36 0 .65-.29.65-.65v-3.5m-6.3.4.05-.07c.17-.24.16-.55-.01-.77-.04-.05-.08-.1-.14-.14a.665.665 0 0 0-.84.07l-.06.09h-.01l-.73 1.03-.73-1.03h-.01l-.06-.09a.665.665 0 0 0-.84-.07c-.29.21-.36.62-.15.91l.99 1.4-.99 1.39c-.21.29-.14.7.15.91.26.18.62.15.84-.07l.06-.09.74-1.03.74 1.03.06.09c.22.22.58.25.84.07.06-.04.1-.09.14-.14.17-.22.18-.53.01-.77l-.05-.07L7.65 16zM17.7 11V9.17s0-.01-.01-.02c0-.21-.04-.41-.11-.6-.08-.19-.19-.37-.34-.53l-2.96-3.18c-.16-.18-.35-.31-.56-.4s-.43-.14-.66-.14c-.01 0-.02-.01-.02-.01H8c-.47 0-.9.19-1.2.5h-.01v.01c-.31.3-.49.73-.49 1.2v5z"/><path d="M18.55 8.99h-3.26q-.39 0-.75-.15c-.24-.1-.44-.24-.62-.42a1.9 1.9 0 0 1-.42-.62c-.1-.24-.16-.49-.16-.76V3.93h1.3v3.11c0 .18.07.34.2.46.12.13.28.19.45.19h3.26z"/></g></svg>
